StripePaymentSheet/StripePaymentSheet/Resources/StripePaymentSheet.xcassets/PaymentMethods/icon-pm-afterpay.imageset/icon-pm-afterpay-mod.svg

<svg fill="none" height="16" viewBox="0 0 16 16" width="16" xmlns="http://www.w3.org/2000/svg" xmlns:xlink="http://www.w3.org/1999/xlink"><clipPath id="a"><path d="m0 0h16v16h-16z"/></clipPath><g clip-path="url(#a)"><path d="m8 16c4.4183 0 8-3.5817 8-8 0-4.41828-3.5817-8-8-8-4.41828 0-8 3.58172-8 8 0 4.4183 3.58172 8 8 8z" fill="#b2fce4"/><path d="m12.5634 5.18676-1.477-.84525-1.49842-.85805c-.9904-.56777-2.22839.14514-2.22839 1.28921v.1921c0 .10673.05549.20491.14941.25614l.69584.39701c.1921.11099.43116-.02988.43116-.25186v-.45678c0-.22625.24333-.36713.4397-.25614l1.3661.78549 1.3618.78121c.1963.11099.1963.39701 0 .508l-1.3618.78122-1.3661.78548c-.19637.11099-.4397-.02988-.4397-.25613v-.22626c0-1.14407-1.23799-1.86125-2.22839-1.28922l-1.49413.86233-1.47705.84525c-.99467.57203-.99467 2.01069 0 2.58269l1.47705.8453 1.4984.858c.9904.5678 2.22839-.1451 2.22839-1.2892v-.1921c0-.1067-.0555-.2049-.14941-.2561l-.69584-.397c-.1921-.111-.43116.0298-.43116.2518v.4568c0 .2262-.24333.3671-.43971.2561l-1.36606-.7855-1.36179-.78117c-.19637-.11099-.19637-.39701 0-.508l1.36179-.78122 1.36606-.78548c.19638-.11099.43971.02988.43971.25614v.22625c0 1.14407 1.23799 1.86128 2.22839 1.28922l1.49835-.85806 1.4771-.84525c.9904-.5763.9904-2.01493-.0043-2.58697z" fill="#000"/></g></svg>

<svg width="16" height="16" viewBox="0 0 16 16" fill="none" xmlns="http://www.w3.org/2000/svg">
<g clip-path="url(#clip0_788_23098)">
<path d="M8 16C12.4183 16 16 12.4183 16 8C16 3.58172 12.4183 0 8 0C3.58172 0 0 3.58172 0 8C0 12.4183 3.58172 16 8 16Z" fill="#B2FCE4"/>
<path d="M12.5634 5.18676L11.0864 4.34151L9.58798 3.48346C8.59758 2.91569 7.35959 3.6286 7.35959 4.77267V4.96477C7.35959 5.0715 7.41508 5.16968 7.509 5.22091L8.20484 5.61792C8.39694 5.72891 8.636 5.58804 8.636 5.36606V4.90928C8.636 4.68303 8.87933 4.54215 9.0757 4.65314L10.4418 5.43863L11.8036 6.21984C11.9999 6.33083 11.9999 6.61685 11.8036 6.72784L10.4418 7.50906L9.0757 8.29454C8.87933 8.40553 8.636 8.26466 8.636 8.03841V7.81215C8.636 6.66808 7.39801 5.9509 6.40761 6.52293L4.91348 7.38526L3.43643 8.23051C2.44176 8.80254 2.44176 10.2412 3.43643 10.8132L4.91348 11.6585L6.41188 12.5165C7.40228 13.0843 8.64027 12.3714 8.64027 11.2273V11.0352C8.64027 10.9285 8.58477 10.8303 8.49086 10.7791L7.79502 10.3821C7.60292 10.2711 7.36386 10.4119 7.36386 10.6339V11.0907C7.36386 11.3169 7.12053 11.4578 6.92415 11.3468L5.55809 10.5613L4.1963 9.78013C3.99993 9.66914 3.99993 9.38312 4.1963 9.27213L5.55809 8.49091L6.92415 7.70543C7.12053 7.59444 7.36386 7.73531 7.36386 7.96157V8.18782C7.36386 9.33189 8.60185 10.0491 9.59225 9.47704L11.0906 8.61898L12.5677 7.77373C13.5581 7.19743 13.5581 5.7588 12.5634 5.18676Z" fill="black"/>
</g>
<defs>
<clipPath id="clip0_788_23098">
<rect width="16" height="16" fill="white"/>
</clipPath>
</defs>
</svg>
